dist/assets/img/solution-4.svg

<svg width="167" height="176" viewBox="0 0 167 176" fill="none" xmlns="http://www.w3.org/2000/svg">
<path d="M103.162 169.257C103.106 169.257 103.069 169.257 103.014 169.238L56.9402 160.692C56.7361 160.653 56.5506 160.536 56.4207 160.36L31.4634 125.727L1.9601 69.6413C1.84877 69.4262 1.83019 69.1916 1.88586 68.9569L11.7018 32.7596C11.7574 32.5445 11.8873 32.3685 12.0543 32.2511L47.9037 7.9631C48.0521 7.86532 48.2191 7.8067 48.3676 7.82626L112.162 9.1756C112.236 9.1756 112.31 9.19513 112.384 9.21469L151.221 21.5738C151.499 21.652 151.703 21.8867 151.796 22.18L163.319 64.9089C163.375 65.124 163.356 65.3587 163.264 65.5542L142.147 109.163L116.299 154.415L103.83 168.944C103.626 169.16 103.403 169.257 103.162 169.257ZM57.5525 159.01L102.847 167.4L114.908 153.378L140.626 108.322L161.575 65.0653L150.275 23.1578L111.995 10.9747L48.5716 9.62534L13.2048 33.5809L3.57442 69.1134L32.8551 124.768L57.5525 159.01Z" fill="white"/>
<path d="M44.9162 60.6654C44.7307 60.6654 44.5451 60.6067 44.3967 60.4698L11.9615 33.7178C11.5904 33.4049 11.5348 32.8574 11.8131 32.4662C12.11 32.0751 12.6296 32.0165 13.0007 32.3098L45.1389 58.8272L100.787 49.0885L111.308 9.84051C111.438 9.37118 111.902 9.0974 112.347 9.23429C112.792 9.37118 113.052 9.86006 112.922 10.3294L102.271 50.1249C102.179 50.4573 101.919 50.7116 101.603 50.7703L45.0647 60.6654C45.009 60.6654 44.9533 60.6654 44.9162 60.6654Z" fill="white"/>
<path d="M141.349 109.672C141.09 109.672 140.83 109.535 140.663 109.3L100.768 50.3987C100.49 50.0076 100.583 49.4405 100.973 49.1667C101.344 48.8733 101.882 48.9712 102.142 49.3818L142.036 108.283C142.314 108.694 142.222 109.241 141.832 109.515C141.683 109.632 141.516 109.672 141.349 109.672Z" fill="white"/>
<path d="M115.539 154.865C115.39 154.865 115.242 154.825 115.112 154.747L70.5229 127.311C70.3559 127.213 70.2446 127.056 70.1704 126.88L44.1369 60.0983C43.9514 59.6485 44.1741 59.1205 44.6008 58.9445C45.0276 58.7489 45.5286 58.9836 45.6956 59.4334L71.6177 125.922L115.965 153.202C116.374 153.457 116.504 154.004 116.262 154.415C116.114 154.708 115.817 154.865 115.539 154.865Z" fill="white"/>
<path d="M70.9496 127.448H70.9311L32.0943 126.098C31.6304 126.079 31.2593 125.668 31.2779 125.179C31.2964 124.69 31.6675 124.319 32.15 124.319L70.9868 125.668C71.4507 125.688 71.8217 126.098 71.8032 126.587C71.7661 127.056 71.395 127.448 70.9496 127.448Z" fill="white"/>
<path d="M121.402 45.1578H121.384L58.5545 41.7943C58.3875 41.7943 58.2391 41.6574 58.1834 41.4814L47.9408 8.88225C47.8665 8.64759 47.9964 8.39341 48.2005 8.31518C48.4232 8.23696 48.6644 8.35427 48.7386 8.58893L58.8885 40.8947L121.291 44.2387L150.72 22.0627C150.906 21.9258 151.165 21.9649 151.314 22.1605C151.444 22.356 151.407 22.6494 151.221 22.7863L121.681 45.0405C121.569 45.1187 121.495 45.1578 121.402 45.1578Z" fill="white"/>
<path d="M22.0929 90.5267C21.9816 90.5267 21.8702 90.4876 21.796 90.3898L2.3869 69.524C2.2199 69.348 2.2199 69.0743 2.3869 68.8983C2.5539 68.7223 2.81364 68.7223 2.98064 68.8983L22.0557 89.4121L58.2391 41.0512C58.3875 40.8556 58.6473 40.8165 58.8329 40.9729C59.0184 41.1294 59.0556 41.4032 58.9071 41.5987L22.4269 90.3507C22.3527 90.4485 22.2413 90.5071 22.1114 90.5267C22.0929 90.5267 22.0929 90.5267 22.0929 90.5267Z" fill="white"/>
<path d="M57.0702 160.262C56.9032 160.262 56.7547 160.164 56.6805 159.988L45.5843 132.102L21.7218 90.3116C21.6105 90.0965 21.6662 89.8227 21.8703 89.7053C22.0744 89.588 22.3342 89.6467 22.4455 89.8618L46.345 131.711L57.4598 159.656C57.5526 159.89 57.4413 160.144 57.2372 160.242C57.1815 160.262 57.1258 160.262 57.0702 160.262Z" fill="white"/>
<path d="M125.559 119.117C125.503 119.117 125.466 119.117 125.41 119.078L92.771 105.819C92.6597 105.78 92.5669 105.682 92.5298 105.565C92.4926 105.448 92.4927 105.311 92.5483 105.213L121.031 44.5125C121.142 44.2974 121.384 44.1996 121.588 44.317C121.792 44.4343 121.885 44.6885 121.773 44.9036L93.4946 105.174L125.41 118.139L162.132 64.909C162.262 64.7134 162.54 64.6547 162.725 64.8111C162.911 64.948 162.948 65.2414 162.818 65.4369L125.911 118.941C125.818 119.058 125.689 119.117 125.559 119.117Z" fill="white"/>
<path d="M103.162 168.808C103.106 168.808 103.032 168.788 102.977 168.768C102.772 168.671 102.68 168.397 102.772 168.182L125.169 118.491C125.262 118.276 125.522 118.178 125.726 118.276C125.93 118.374 126.023 118.648 125.93 118.863L103.533 168.553C103.478 168.729 103.311 168.808 103.162 168.808Z" fill="white"/>
<path d="M45.9739 132.395C45.8255 132.395 45.677 132.317 45.6028 132.16C45.4914 131.945 45.5657 131.672 45.7698 131.554L92.6968 105.017C92.9009 104.9 93.1607 104.978 93.272 105.193C93.3833 105.408 93.3091 105.682 93.105 105.8L46.178 132.336C46.1223 132.376 46.0481 132.395 45.9739 132.395Z" fill="white"/>
</svg>

<svg width="167" height="176" fill="none" xmlns="http://www.w3.org/2000/svg"><path d="M103.162 169.257c-.056 0-.093 0-.148-.019l-46.074-8.546a.844.844 0 01-.52-.332l-24.957-34.633L1.96 69.641a.971.971 0 01-.074-.684l9.816-36.197a.894.894 0 01.352-.509l35.85-24.288c.148-.098.315-.156.464-.137l63.794 1.35c.074 0 .148.02.222.039l38.837 12.359c.278.078.482.313.575.606l11.523 42.729a.965.965 0 01-.055.645l-21.117 43.609-25.848 45.252-12.469 14.529c-.204.216-.427.313-.668.313zm-45.61-10.247l45.295 8.39 12.061-14.022 25.718-45.056 20.949-43.257-11.3-41.907-38.28-12.183-63.423-1.35-35.367 23.956-9.63 35.532 29.28 55.655 24.698 34.242z" fill="#fff"/><path d="M44.916 60.665a.754.754 0 01-.52-.195L11.963 33.718a.932.932 0 01-.149-1.252.824.824 0 011.188-.156L45.14 58.827l55.648-9.738 10.52-39.249c.13-.47.594-.744 1.039-.607.445.137.705.626.575 1.095l-10.651 39.796c-.092.332-.352.587-.668.645l-56.538 9.895h-.149z" fill="#fff"/><path d="M141.349 109.672a.857.857 0 01-.686-.372l-39.895-58.901a.894.894 0 01.205-1.232.795.795 0 011.169.215l39.894 58.901c.278.411.186.958-.204 1.232a.757.757 0 01-.483.157zm-25.81 45.193a.83.83 0 01-.427-.118l-44.59-27.436a.875.875 0 01-.352-.431L44.137 60.098c-.186-.45.037-.977.464-1.154.427-.195.928.04 1.095.49l25.922 66.488 44.347 27.28a.902.902 0 01.297 1.213.82.82 0 01-.723.45z" fill="#fff"/><path d="M70.95 127.448h-.019l-38.837-1.35c-.464-.019-.835-.43-.816-.919.018-.489.39-.86.872-.86l38.837 1.349c.464.02.835.43.816.919-.037.469-.408.861-.853.861zm50.452-82.29h-.018l-62.83-3.364c-.166 0-.315-.137-.37-.313L47.94 8.882a.467.467 0 01.26-.567.416.416 0 01.538.274l10.15 32.306 62.402 3.344 29.429-22.176a.424.424 0 01.594.098c.13.195.093.488-.093.625l-29.54 22.255c-.112.078-.186.117-.279.117z" fill="#fff"/><path d="M22.093 90.527a.36.36 0 01-.297-.137L2.386 69.524a.453.453 0 010-.626.4.4 0 01.595 0l19.075 20.514 36.183-48.36c.149-.196.408-.236.594-.08a.458.458 0 01.074.627L22.427 90.35a.474.474 0 01-.316.176h-.018z" fill="#fff"/><path d="M57.07 160.262a.42.42 0 01-.39-.274l-11.096-27.886-23.862-41.79c-.112-.215-.056-.49.148-.607a.408.408 0 01.575.157l23.9 41.849 11.115 27.945a.463.463 0 01-.223.586c-.056.02-.111.02-.167.02zm68.489-41.145c-.056 0-.093 0-.149-.039l-32.639-13.259a.4.4 0 01-.241-.254.46.46 0 01.018-.352l28.483-60.7c.111-.216.353-.313.557-.196a.443.443 0 01.185.587l-28.278 60.27 31.915 12.965 36.722-53.23c.13-.196.408-.254.593-.098.186.137.223.43.093.626l-36.907 53.504a.448.448 0 01-.352.176z" fill="#fff"/><path d="M103.162 168.808a.608.608 0 01-.185-.04c-.205-.097-.297-.371-.205-.586l22.397-49.691a.42.42 0 01.557-.215c.204.098.297.372.204.587l-22.397 49.69c-.055.176-.222.255-.371.255zm-57.188-36.413a.405.405 0 01-.371-.235.461.461 0 01.167-.606l46.927-26.537a.415.415 0 01.575.176.462.462 0 01-.167.607l-46.927 26.536a.353.353 0 01-.204.059z" fill="#fff"/></svg>
